X:1
T:Title
%%score { ( 1 4 5 ) | ( 2 3 6 ) }
L:1/8
Q:1/4=100
M:4/4
K:C
V:1 treble nm="Grand Piano"
V:4 treble 
V:5 treble 
V:2 bass 
V:3 bass 
V:6 bass 
V:1
 [CE]G^FG [EA]2 [EG]E | G2 G2 z2 G,2 | [B,D]EFG [FB]2 A2 | z2 G4 z2 | EG^FG [EA]2 .[G,CEG]2 | %5
w: Charles~Gabriel * * * * * *|||||
 c2 A2 z2 z c | B2 DB A2 .D2 | [G,G]2- [G,EG-]2 [FG]GAB | c2 Ac [FB]2 [G,B,F]2 | [GB]AGF E2 G2 | %10
w: |||||
 F2 DB A2 Ec | z4 d4[K:bass][K:treble] | c2 z2 z4 | z4 [EG]4 | A2 Bc .E2 z D | C6 z2 |] %16
w: ||||||
V:2
 z E_E=E C,2 [E,G,C]2 | [E,C]2 [_E,C]2 D,2 z C | z CDE G,,2 [F,G,B,F]2 | z2 [E,G,C]2 z4 | %4
 C,-[C,E]_E=E C,2 z E | E,2 _E,2 D,2 G,2 | z4 z2[K:treble] C2 | z2 C2 .[B,D]2 z2 | %8
 C,2 [E,G,C]2 D,2 F,2 | z FED [C,C]2 [E,G,CE]2 | D,2 [F,G,B,]2 E,2 [G,C]2 | z4 [B,F]4 | %12
 C,2 [E,G,C]2 D,2 z[K:treble] B | G,,2 z A C,2 E,2 | [F,C]2 [^F,A,_E]2 CC z F, | [C,E,]6 z2 |] %16
V:3
 C,2 [E,G,C]2 z4 | z4 z2 F,2 | G,,2 [F,G,B,]2 z4 | [C,C]2 E2- [E,G,E]2 [E,G,]2 | %4
 .C2 [E,G,C]2 z2 E,2 | x8 | [D,G,D]2 B,D [D,^F,C]2[K:treble] z A | G,,6 z2 | x8 | %9
 G,,2 [F,G,B,]2 z4 | x8 | [^F,CD]2 [D,C]2 .G,2 z D, | z4 z2 F,2[K:treble] | z2 F,2 z4 | z4 G,4 | %15
 x8 |] %16
V:4
 x8 | z4 B,4 | x8 | E2 z2 C2 C2 | x8 | z4 [DGB]4 | x8 | [B,D]2 z2 z4 | E4 z4 | x8 | x8 | %11
 A2 [^Fd]2 z[K:bass] F,E,[K:treble]G | E2- [E-A][Ec] [FB]2 [G,B,F]2 | [FA]2 .[G,B,D]2 z2 z G | %14
 z4 z .E3 | x8 |] %16
V:5
 x8 | x8 | x8 | x8 | x8 | [C-G]4 C2 B,2 | x8 | x8 | x8 | x8 | x8 | x5[K:bass] x2[K:treble] x | x8 | %13
 z4 z2 [G,C]2 | z4 z2 B,2 | x8 |] %16
V:6
 x8 | x8 | x8 | x8 | x8 | x8 | x6[K:treble] x2 | x8 | x8 | x8 | x8 | x8 | x7[K:treble] x | x8 | %14
 z4 z2 G,,2 | x8 |] %16

